!!!COM: Anon.
!!!OCL: Francis James Child
!!!OPR: The English and Scottish Popular Ballads
!!!OVM: Vol. 1
!!!ONM: No. 1
!!!PDT: 1882
!!!YEM: Public domain.
**kern
*M3/4
*g:
=1
{8a
8b-
8a
=2
8g
8g
8a
8b-
8cc
8b-
=3
*M2/4
4a}
!! Second phrase:
{8b-
8cc
=4
*M3/4
4dd
8dd
8dd
16dd
16ee
16dd
16cc
=5
4dd}
8r
!! Third phrase:
{8dd
8dd
8cc
=6
4b-
4dd
8cc
8b-
=7
*M2/4
4a}
!! Fourth phrase:
{8g
8a
=8
*M3/4
8a
8b-
8a
8g
8a
8b-
=9
2g}
8r
====
*-
!!!OCY: Britain; England
!!!PPP: Boston
!!!ODT: <1882
!!!AFR: folk song
!!!AST: monophony
!!!AMT: irregular
!!!SCA: Child Collection
!!!AIN: vox
!!!EEV: 1.0
!!!RDT: 1987 June
!!!YER: 1994 August 10
!!!VTS: 652652838
